outputs/icons/content/save_alt_sharp.svg

<svg xmlns="http://www.w3.org/2000/svg" width="1200" height="1200" fill="none"><g clip-path="url(#a)"><path fill="#000" d="M950 600v350H250V600H150v450h900V600zm-300 33.5 129.5-129L850 575 600 825 350 575l70.5-70.5 129.5 129V150h100z"/></g><defs><clipPath id="a"><path fill="#fff" d="M0 0h1200v1200H0z"/></clipPath></defs></svg>

<svg width="1200" height="1200" viewBox="0 0 1200 1200" fill="none" xmlns="http://www.w3.org/2000/svg"><g clip-path="url(#clip0_122_129)"><path d="M950 600V950H250V600H150V1050H1050V600H950ZM650 633.5L779.5 504.5L850 575L600 825L350 575L420.5 504.5L550 633.5V150H650V633.5Z" fill="#1D1E23"/></g><defs><clipPath id="clip0_122_129"><path width="24" fill="white" d="M0 0H1200V1200H0V0z"/></clipPath></defs></svg>
